X:1
T:Elizabeth Kelly's Delight
R:slip jig
D:Deiseal.
Z:id:hn-slipjig-1
M:9/8
K:Ador
~A3 ABA AGE|A2E G2E DEG|~A3 BAG AGE|1 ~G3 ~G2E DEG:|2 ~G3 ~G2E GAB||
|:c2A BAG A2B|c2A BGE DEG|c2A BAG AGE|1 ~G3 ~G2E GAB:|2 ~G3 ~G2E DEG||
<end>
<start>
